src/assets/images/prototype/main-image/6-frites.svg

<svg width="919" height="657" fill="none" xmlns="http://www.w3.org/2000/svg"><rect x="3" y="3" width="913" height="586.693" rx="5" fill="#fff" stroke="#D9D9D9" stroke-width="5" stroke-linejoin="round"/><path d="M227.518 494.958c3.729 4.839 24.808.022 34.881-2.99 11.047-2.84 22.936-17.674 24.65-18.995 1.713-1.32 5.26.556 8.006 2.212 2.747 1.655 8.297-12.68 8.602-15.01.305-2.331 4.087-3.149 10.27-3.304 6.183-.155 2.732-13.63 5.368-15.662 2.637-2.031 7.693.987 12.559 1.848 4.865.861 14.511-15.792 11.168-20.131s-16.9 5.06-19.23 2.036c-2.33-3.024 13.16-6.369 11.024-12.685-2.136-6.317-26.938-11.512-32.502-15.188-5.563-3.675-4.161-11.67-7.809-13.679-3.649-2.008-22.577 5.873-26.572 8.322-3.994 2.45 8.711 16.757-.647 21.244-9.357 4.487-6.804-18.645-13.069-16.961-6.265 1.685-13.313 10.26-16.609 12.799-3.295 2.539-7.589-6.305-9.219-11.964-1.63-5.659 1.423-9.059 7.131-12.829 5.708-3.771 5.42-16.959-1.123-30.357s-13.069-16.96-15.906-20.641c-2.837-3.682-12.258-18.634-16.412-21.299-4.155-2.666-25.114 13.485-28.5 13.998-3.385.514-12.655-12.878-20.049-2.571-7.393 10.307 8.365 21.214 12.66 27.334 4.295 6.119 1.483 18.554 1.025 22.05-.457 3.496-.848 15.531.875 17.766 1.722 2.235 8.704 7.751 10.73 10.381 2.026 2.629 6.645 10.804 16.928 25.511 10.282 14.707 41.305 3.165 45.724 2.903 4.42-.263 12.549 1.017 12.862 4.967.312 3.95-13.016 1.648-20.111.619-7.096-1.028-10.018 7.72-11.996 9.244-1.977 1.523-6.272-4.596-8.311-2.607-2.038 1.99-3.574 15.537-4.234 18.77-.66 3.232-15.996 2.687-15.136 5.167.664 1.914 9.862 7.715 14.86 10.666.355.209.681.458.974.747 4.487 4.421 13.533 13.61 17.138 18.289z" fill="#fff" stroke="#D9D9D9" stroke-width="5" stroke-linejoin="round"/><path d="M252.341 359.47c1.39 2.482 8.064 5.494 11.228 6.69.92.361 8.773.709 11.718-.214 2.945-.924 4.303-5.94 5.221-9.07.918-3.13 5.374-6.16 7.336-11.239 1.963-5.079-1.58-26.708-6.171-31.649-4.591-4.941-17.222-5.234-22.43-2.163-5.208 3.071-9.091 12.86-11.513 18.36-2.422 5.5 2.873 26.183 4.611 29.285zm73.72 174.131c-3.757-.011-11.551-5.677-14.979-8.508-1.011-.817-6.503-9.497-7.35-13.417-.846-3.919 4.047-8.62 7.053-11.633 3.007-3.014 15.218 8.34 19.79 2.915 4.573-5.426 20.149-33.356 28.812-31.267 8.663 2.09 17.189 16.221 17.031 24.059-.157 7.838-8.905 18.409-13.665 24.62-4.759 6.211-31.995 13.246-36.692 13.231zm357.502-311.48c-.901-6.392-22.786-12.97-33.617-15.46-11.634-3.157-30.304 4.269-32.568 4.588-2.264.319-4.544-3.258-6.204-6.213-1.659-2.955-14.244 7.322-15.741 9.304-1.497 1.983-5.399.761-11.162-2.325-5.763-3.086-9.626 11.1-13.11 11.591-3.483.49-6.554-4.923-10.576-8.254-4.022-3.331-21.58 6.937-20.773 12.67.808 5.732 18.172 4.172 18.735 8.167.563 3.996-15.418-1.016-16.753 5.904-1.334 6.92 18.747 24.641 21.941 30.923 3.194 6.283-2.268 12.898.036 16.648 2.305 3.75 23.813 6.39 28.763 6.224 4.95-.166.743-19.947 11.685-19.185 10.942.762-3.481 20.686 3.156 22.409 6.637 1.722 17.591-2.478 21.945-3.092 4.354-.613 3.683 9.757 2.227 15.808-1.457 6.052-6.037 7.583-13.251 8.067-7.214.485-13.833 12.756-14.815 28.484-.981 15.729 3.157 22.409 3.842 27.273.685 4.864 1.538 23.523 3.964 28.142 2.427 4.618 30.119.717 33.499 2.013 3.379 1.295 4.907 18.442 17.082 12.829 12.176-5.613 3.388-23.862 2.635-31.729-.752-7.866 8.324-17.825 10.569-20.799 2.246-2.974 8.887-13.83 8.471-16.783-.416-2.953-3.953-11.667-4.442-15.142-.49-3.474-.467-13.398-2.239-32.282-1.772-18.883-36.307-24.471-40.505-26.537-4.199-2.066-11.001-7.485-9.227-11.278 1.775-3.793 12.822 5.28 18.806 9.929 5.983 4.649 13.236-1.865 15.849-2.233 2.612-.368 3.365 7.498 6.277 6.734 2.912-.765 11.395-12.412 13.689-15.038 2.295-2.627 16.104 5.88 16.608 3.152.389-2.109-5.056-12.276-8.106-17.589a5.059 5.059 0 01-.479-1.132c-1.812-6.393-5.339-19.595-6.211-25.788zm53.684 153.137c.018-3.007-4.543-9.259-6.826-12.01-.658-.812-7.692-5.231-10.881-5.92-3.188-.689-7.055 3.213-9.533 5.61-2.477 2.397-8.154 2.855-12.609 6.498-4.455 3.643-12.49 25.37-10.851 32.307 1.64 6.938 13.096 13.801 19.485 13.697 6.389-.103 15.068-7.072 20.164-10.862 5.097-3.79 11.028-25.562 11.051-29.32zM626.293 136.922c3.448 1.972 7.653 11.248 9.324 15.639.504 1.278 1.019 12.123-.249 16.167-1.268 4.044-8.219 5.81-12.555 7.009-4.336 1.2-9.63-15.609-16.665-13.01-7.034 2.599-35.929 20.135-42.8 13.693-6.87-6.442-7.329-23.88-3.092-31.001 4.237-7.12 17.794-12.268 25.41-15.492 7.617-3.223 36.318 4.53 40.627 6.995z" fill="#fff" stroke="#D9D9D9" stroke-width="5" stroke-linejoin="round"/><path d="M527.619 421.745c-5.951 2.5-6.732 25.34-6.378 36.447-.086 12.055 11.855 28.214 12.74 30.322.886 2.108-1.991 5.225-4.425 7.583-2.434 2.358 10.711 11.906 13.01 12.848 2.298.942 2.112 5.027.598 11.387-1.514 6.359 13.187 6.478 14.55 9.721 1.362 3.243-3.089 7.593-5.285 12.331-2.195 4.738 12.211 19.098 17.548 16.856 5.337-2.243-.599-18.635 3.121-20.198 3.72-1.563 2.948 15.168 9.98 14.694 7.031-.475 19.047-24.41 24.307-29.101 5.26-4.69 13.05-1.095 16.088-4.279 3.039-3.185.107-24.655-1.316-29.399-1.422-4.744-19.476 4.367-21.53-6.407-2.053-10.775 20.891-1.909 20.864-8.766-.027-6.857-6.881-16.377-8.585-20.431-1.23-2.929 3.752-4.784 8.959-5.638 3.011-.494 5.302-3.246 4.792-6.255l-4.667-27.561a5 5 0 00-3.331-3.903l-10.52-3.551c-1.08-.364-2.265-.375-3.284.134-15.982 7.989-12.818 40.794-13.716 45.236-.927 4.587-4.433 12.546-8.553 11.797-4.121-.748 1.836-13.744 4.806-20.715 2.97-6.971-5.178-12.324-6.2-14.756-1.022-2.432 6.392-5.166 4.91-7.786-1.481-2.621-14.907-7.854-18.031-9.403-3.125-1.549 1.58-17.071-1.187-16.863-2.138.162-10.581 8.019-14.94 12.323a5.025 5.025 0 01-.973.751c-5.72 3.383-17.586 10.159-23.352 12.582z" stroke="#D9D9D9" stroke-width="5" stroke-linejoin="round"/><path d="M437.13 534.684c-3.2-2.351-6.321-12.046-7.481-16.599-.354-1.327.368-12.16 2.089-16.033 1.721-3.874 8.827-4.836 13.272-5.534 4.445-.697 7.79 16.605 15.074 14.824 7.285-1.78 37.99-15.911 44.082-8.727 6.091 7.183 4.56 24.559-.46 31.151-5.02 6.591-19.076 10.161-27.01 12.496-7.934 2.335-35.566-8.638-39.566-11.578zm1.032-290.077c6.459-2.372 7.904-28.012 7.819-40.535.413-13.557-11.981-32.625-12.877-35.063-.895-2.437 2.278-5.73 4.954-8.203 2.677-2.472-11.186-14.191-13.63-15.422-2.443-1.23-2.135-5.812-.339-12.855 1.795-7.043-13.991-8.268-15.368-12.018-1.377-3.75 3.519-8.314 6.003-13.482 2.484-5.168-12.606-22.395-18.398-20.268-5.791 2.127.148 21.012-3.888 22.494-4.036 1.483-2.763-17.285-10.327-17.273-7.564.012-21.105 26.05-26.879 30.937-5.773 4.887-14.044.264-17.392 3.621-3.347 3.357-.769 27.732.632 33.176 1.402 5.443 21.033-3.469 22.952 8.807 1.919 12.275-22.485.597-22.639 8.314-.153 7.717 6.955 18.937 8.676 23.625 1.722 4.687-9.283 6.175-15.97 5.865-6.686-.311-9.423-5.051-11.72-12.932-2.297-7.881-16.765-12.568-33.448-10.272-16.683 2.297-22.639 8.315-27.553 10.119-4.914 1.805-24.206 6.762-28.431 10.442-4.225 3.679 6.723 33.492 6.208 37.511-.516 4.02-18.059 9.398-9.171 21.668 8.888 12.27 25.782-1.383 33.817-3.908s20.698 5.379 24.363 7.225c3.665 1.846 16.661 6.861 19.644 5.766 2.984-1.096 11.214-6.885 14.724-8.174 3.51-1.289 13.889-3.398 33.187-9.422 19.298-6.023 16.569-45.451 17.687-50.542 1.117-5.092 5.094-13.787 9.499-12.639 4.405 1.149-2.337 15.328-5.712 22.951-3.375 7.623 5.233 14.25 6.266 17.063 1.033 2.812-7.002 5.338-5.48 8.396 1.521 3.059 15.801 9.944 19.115 11.918 3.314 1.975-2.151 19.09.826 19.061 2.303-.023 11.588-8.247 16.382-12.764a5.048 5.048 0 011.05-.762c6.229-3.379 19.16-10.127 25.418-12.425z" fill="#fff" stroke="#D9D9D9" stroke-width="5" stroke-linejoin="round"/><path d="M283.167 169.126c3.146-.627 8.55-7.02 10.859-10.139.685-.902 3.559-9.64 3.488-13.317-.072-3.677-5.109-7.118-8.229-9.345-3.12-2.227-5.008-8.412-9.921-12.559-4.913-4.148-29.617-8.369-36.461-5.061-6.844 3.307-11.175 17.463-9.482 24.512 1.694 7.05 11.131 15.158 16.357 19.984 5.227 4.826 29.455 6.708 33.389 5.925zm234.064 4.37c-1.206 4.24-9.858 10.889-14.033 13.684-1.211.832-12.418 3.736-16.96 3.202-4.542-.534-8.112-7.847-10.441-12.389-2.33-4.542 13.925-14.018 9.463-21.245-4.462-7.227-29.961-35.438-24.932-44.429 5.029-8.99 23.142-13.249 31.636-10.091 8.493 3.158 17.238 17.057 22.497 24.794 5.259 7.737 4.277 41.174 2.77 46.474z" fill="#fff" stroke="#D9D9D9" stroke-width="5" stroke-linejoin="round"/><circle cx="465.298" cy="339.744" r="178.955" fill="#fff" stroke="#D9D9D9" stroke-width="5" stroke-linejoin="round"/><circle cx="465.297" cy="338.086" r="102.696" fill="#fff" stroke="#D9D9D9" stroke-width="5" stroke-linejoin="round"/></svg>

<svg width="919" height="657" viewBox="0 0 919 657" fill="none" xmlns="http://www.w3.org/2000/svg">
<rect x="3" y="3" width="913" height="586.693" rx="5" fill="white" stroke="#D9D9D9" stroke-width="5" stroke-linejoin="round"/>
<path d="M227.518 494.958C231.247 499.797 252.326 494.98 262.399 491.968C273.446 489.128 285.335 474.294 287.049 472.973C288.762 471.653 292.309 473.529 295.055 475.185C297.802 476.84 303.352 462.505 303.657 460.175C303.962 457.844 307.744 457.026 313.927 456.871C320.11 456.716 316.659 443.241 319.295 441.209C321.932 439.178 326.988 442.196 331.854 443.057C336.719 443.918 346.365 427.265 343.022 422.926C339.679 418.587 326.122 427.986 323.792 424.962C321.462 421.938 336.952 418.593 334.816 412.277C332.68 405.96 307.878 400.765 302.314 397.089C296.751 393.414 298.153 385.419 294.505 383.41C290.856 381.402 271.928 389.283 267.933 391.732C263.939 394.182 276.644 408.489 267.286 412.976C257.929 417.463 260.482 394.331 254.217 396.015C247.952 397.7 240.904 406.275 237.608 408.814C234.313 411.353 230.019 402.509 228.389 396.85C226.759 391.191 229.812 387.791 235.52 384.021C241.228 380.25 240.94 367.062 234.397 353.664C227.854 340.266 221.328 336.704 218.491 333.023C215.654 329.341 206.233 314.389 202.079 311.724C197.924 309.058 176.965 325.209 173.579 325.722C170.194 326.236 160.924 312.844 153.53 323.151C146.137 333.458 161.895 344.365 166.19 350.485C170.485 356.604 167.673 369.039 167.215 372.535C166.758 376.031 166.367 388.066 168.09 390.301C169.812 392.536 176.794 398.052 178.82 400.682C180.846 403.311 185.465 411.486 195.748 426.193C206.03 440.9 237.053 429.358 241.472 429.096C245.892 428.833 254.021 430.113 254.334 434.063C254.646 438.013 241.318 435.711 234.223 434.682C227.127 433.654 224.205 442.402 222.227 443.926C220.25 445.449 215.955 439.33 213.916 441.319C211.878 443.309 210.342 456.856 209.682 460.089C209.022 463.321 193.686 462.776 194.546 465.256C195.21 467.17 204.408 472.971 209.406 475.922C209.761 476.131 210.087 476.38 210.38 476.669C214.867 481.09 223.913 490.279 227.518 494.958Z" fill="white" stroke="#D9D9D9" stroke-width="5" stroke-linejoin="round"/>
<path d="M252.341 359.47C253.731 361.952 260.405 364.964 263.569 366.16C264.489 366.521 272.342 366.869 275.287 365.946C278.232 365.022 279.59 360.006 280.508 356.876C281.426 353.746 285.882 350.716 287.844 345.637C289.807 340.558 286.264 318.929 281.673 313.988C277.082 309.047 264.451 308.754 259.243 311.825C254.035 314.896 250.152 324.685 247.73 330.185C245.308 335.685 250.603 356.368 252.341 359.47Z" fill="white" stroke="#D9D9D9" stroke-width="5" stroke-linejoin="round"/>
<path d="M326.061 533.601C322.304 533.59 314.51 527.924 311.082 525.093C310.071 524.276 304.579 515.596 303.732 511.676C302.886 507.757 307.779 503.056 310.785 500.043C313.792 497.029 326.003 508.383 330.575 502.958C335.148 497.532 350.724 469.602 359.387 471.691C368.05 473.781 376.576 487.912 376.418 495.75C376.261 503.588 367.513 514.159 362.753 520.37C357.994 526.581 330.758 533.616 326.061 533.601Z" fill="white" stroke="#D9D9D9" stroke-width="5" stroke-linejoin="round"/>
<path d="M683.563 222.121C682.662 215.729 660.777 209.151 649.946 206.661C638.312 203.504 619.642 210.93 617.378 211.249C615.114 211.568 612.834 207.991 611.174 205.036C609.515 202.081 596.93 212.358 595.433 214.34C593.936 216.323 590.034 215.101 584.271 212.015C578.508 208.929 574.645 223.115 571.161 223.606C567.678 224.096 564.607 218.683 560.585 215.352C556.563 212.021 539.005 222.289 539.812 228.022C540.62 233.754 557.984 232.194 558.547 236.189C559.11 240.185 543.129 235.173 541.794 242.093C540.46 249.013 560.541 266.734 563.735 273.016C566.929 279.299 561.467 285.914 563.771 289.664C566.076 293.414 587.584 296.054 592.534 295.888C597.484 295.722 593.277 275.941 604.219 276.703C615.161 277.465 600.738 297.389 607.375 299.112C614.012 300.834 624.966 296.634 629.32 296.02C633.674 295.407 633.003 305.777 631.547 311.828C630.09 317.88 625.51 319.411 618.296 319.895C611.082 320.38 604.463 332.651 603.481 348.379C602.5 364.108 606.638 370.788 607.323 375.652C608.008 380.516 608.861 399.175 611.287 403.794C613.714 408.412 641.406 404.511 644.786 405.807C648.165 407.102 649.693 424.249 661.868 418.636C674.044 413.023 665.256 394.774 664.503 386.907C663.751 379.041 672.827 369.082 675.072 366.108C677.318 363.134 683.959 352.278 683.543 349.325C683.127 346.372 679.59 337.658 679.101 334.183C678.611 330.709 678.634 320.785 676.862 301.901C675.09 283.018 640.555 277.43 636.357 275.364C632.158 273.298 625.356 267.879 627.13 264.086C628.905 260.293 639.952 269.366 645.936 274.015C651.919 278.664 659.172 272.15 661.785 271.782C664.397 271.414 665.15 279.28 668.062 278.516C670.974 277.751 679.457 266.104 681.751 263.478C684.046 260.851 697.855 269.358 698.359 266.63C698.748 264.521 693.303 254.354 690.253 249.041C690.048 248.684 689.887 248.305 689.774 247.909C687.962 241.516 684.435 228.314 683.563 222.121Z" fill="white" stroke="#D9D9D9" stroke-width="5" stroke-linejoin="round"/>
<path d="M737.247 375.258C737.265 372.251 732.704 365.999 730.421 363.248C729.763 362.436 722.729 358.017 719.54 357.328C716.352 356.639 712.485 360.541 710.007 362.938C707.53 365.335 701.853 365.793 697.398 369.436C692.943 373.079 684.908 394.806 686.547 401.743C688.187 408.681 699.643 415.544 706.032 415.44C712.421 415.337 721.1 408.368 726.196 404.578C731.293 400.788 737.224 379.016 737.247 375.258Z" fill="white" stroke="#D9D9D9" stroke-width="5" stroke-linejoin="round"/>
<path d="M626.293 136.922C629.741 138.894 633.946 148.17 635.617 152.561C636.121 153.839 636.636 164.684 635.368 168.728C634.1 172.772 627.149 174.538 622.813 175.737C618.477 176.937 613.183 160.128 606.148 162.727C599.114 165.326 570.219 182.862 563.348 176.42C556.478 169.978 556.019 152.54 560.256 145.419C564.493 138.299 578.05 133.151 585.666 129.927C593.283 126.704 621.984 134.457 626.293 136.922Z" fill="white" stroke="#D9D9D9" stroke-width="5" stroke-linejoin="round"/>
<path d="M527.619 421.745C521.668 424.245 520.887 447.085 521.241 458.192C521.155 470.247 533.096 486.406 533.981 488.514C534.867 490.622 531.99 493.739 529.556 496.097C527.122 498.455 540.267 508.003 542.566 508.945C544.864 509.887 544.678 513.972 543.164 520.332C541.65 526.691 556.351 526.81 557.714 530.053C559.076 533.296 554.625 537.646 552.429 542.384C550.234 547.122 564.64 561.482 569.977 559.24C575.314 556.997 569.378 540.605 573.098 539.042C576.818 537.479 576.046 554.21 583.078 553.736C590.109 553.261 602.125 529.326 607.385 524.635C612.645 519.945 620.435 523.54 623.473 520.356C626.512 517.171 623.58 495.701 622.157 490.957C620.735 486.213 602.681 495.324 600.627 484.55C598.574 473.775 621.518 482.641 621.491 475.784C621.464 468.927 614.61 459.407 612.906 455.353C611.676 452.424 616.658 450.569 621.865 449.715C624.876 449.221 627.167 446.469 626.657 443.46L621.99 415.899C621.683 414.084 620.403 412.585 618.659 411.996L608.139 408.445C607.059 408.081 605.874 408.07 604.855 408.579C588.873 416.568 592.037 449.373 591.139 453.815C590.212 458.402 586.706 466.361 582.586 465.612C578.465 464.864 584.422 451.868 587.392 444.897C590.362 437.926 582.214 432.573 581.192 430.141C580.17 427.709 587.584 424.975 586.102 422.355C584.621 419.734 571.195 414.501 568.071 412.952C564.946 411.403 569.651 395.881 566.884 396.089C564.746 396.251 556.303 404.108 551.944 408.412C551.651 408.701 551.325 408.954 550.971 409.163C545.251 412.546 533.385 419.322 527.619 421.745Z" stroke="#D9D9D9" stroke-width="5" stroke-linejoin="round"/>
<path d="M437.13 534.684C433.93 532.333 430.809 522.638 429.649 518.085C429.295 516.758 430.017 505.925 431.738 502.052C433.459 498.178 440.565 497.216 445.01 496.518C449.455 495.821 452.8 513.123 460.084 511.342C467.369 509.562 498.074 495.431 504.166 502.615C510.257 509.798 508.726 527.174 503.706 533.766C498.686 540.357 484.63 543.927 476.696 546.262C468.762 548.597 441.13 537.624 437.13 534.684Z" fill="white" stroke="#D9D9D9" stroke-width="5" stroke-linejoin="round"/>
<path d="M438.162 244.607C444.621 242.235 446.066 216.595 445.981 204.072C446.394 190.515 434 171.447 433.104 169.009C432.209 166.572 435.382 163.279 438.058 160.806C440.735 158.334 426.872 146.615 424.428 145.384C421.985 144.154 422.293 139.572 424.089 132.529C425.884 125.486 410.098 124.261 408.721 120.511C407.344 116.761 412.24 112.197 414.724 107.029C417.208 101.861 402.118 84.6344 396.326 86.7613C390.535 88.8882 396.474 107.773 392.438 109.255C388.402 110.738 389.675 91.9702 382.111 91.9819C374.547 91.9936 361.006 118.032 355.232 122.919C349.459 127.806 341.188 123.183 337.84 126.54C334.493 129.897 337.071 154.272 338.472 159.716C339.874 165.159 359.505 156.247 361.424 168.523C363.343 180.798 338.939 169.12 338.785 176.837C338.632 184.554 345.74 195.774 347.461 200.462C349.183 205.149 338.178 206.637 331.491 206.327C324.805 206.016 322.068 201.276 319.771 193.395C317.474 185.514 303.006 180.827 286.323 183.123C269.64 185.42 263.684 191.438 258.77 193.242C253.856 195.047 234.564 200.004 230.339 203.684C226.114 207.363 237.062 237.176 236.547 241.195C236.031 245.215 218.488 250.593 227.376 262.863C236.264 275.133 253.158 261.48 261.193 258.955C269.228 256.43 281.891 264.334 285.556 266.18C289.221 268.026 302.217 273.041 305.2 271.946C308.184 270.85 316.414 265.061 319.924 263.772C323.434 262.483 333.813 260.374 353.111 254.35C372.409 248.327 369.68 208.899 370.798 203.808C371.915 198.716 375.892 190.021 380.297 191.169C384.702 192.318 377.96 206.497 374.585 214.12C371.21 221.743 379.818 228.37 380.851 231.183C381.884 233.995 373.849 236.521 375.371 239.579C376.892 242.638 391.172 249.523 394.486 251.497C397.8 253.472 392.335 270.587 395.312 270.558C397.615 270.535 406.9 262.311 411.694 257.794C412.01 257.496 412.362 257.24 412.744 257.032C418.973 253.653 431.904 246.905 438.162 244.607Z" fill="white" stroke="#D9D9D9" stroke-width="5" stroke-linejoin="round"/>
<path d="M283.167 169.126C286.313 168.499 291.717 162.106 294.026 158.987C294.711 158.085 297.585 149.347 297.514 145.67C297.442 141.993 292.405 138.552 289.285 136.325C286.165 134.098 284.277 127.913 279.364 123.766C274.451 119.618 249.747 115.397 242.903 118.705C236.059 122.012 231.728 136.168 233.421 143.217C235.115 150.267 244.552 158.375 249.778 163.201C255.005 168.027 279.233 169.909 283.167 169.126Z" fill="white" stroke="#D9D9D9" stroke-width="5" stroke-linejoin="round"/>
<path d="M517.231 173.496C516.025 177.736 507.373 184.385 503.198 187.18C501.987 188.012 490.78 190.916 486.238 190.382C481.696 189.848 478.126 182.535 475.797 177.993C473.467 173.451 489.722 163.975 485.26 156.748C480.798 149.521 455.299 121.31 460.328 112.319C465.357 103.329 483.47 99.0705 491.964 102.228C500.457 105.386 509.202 119.285 514.461 127.022C519.72 134.759 518.738 168.196 517.231 173.496Z" fill="white" stroke="#D9D9D9" stroke-width="5" stroke-linejoin="round"/>
<circle cx="465.298" cy="339.744" r="178.955" fill="white" stroke="#D9D9D9" stroke-width="5" stroke-linejoin="round"/>
<circle cx="465.297" cy="338.086" r="102.696" fill="white" stroke="#D9D9D9" stroke-width="5" stroke-linejoin="round"/>
</svg>
